X: 29789
T: O'Bryan's
R: reel
M: 4/4
K: Gmajor
BA|:(3GGG BG Bded|ga/g/ eg dBAG|c2 gc B2 gB|AGEG A2 BA|
(3GGG BG Bded|ga/g/ eg dBAG|c2 gc B2 gB|1 (3AAA BA G2 BA:|2 (3AAA BA G2 de||
|:(3ggg bg ageg|dgeg dgef|(3ggg bg ageg|aded g2 de|(3ggg bg ageg|
dgeg dgef|(3ggg gd edBe|1 (3AAA BA G2 de:|2 )3AAA BA G2||

